icons/actions/22/application-menu.svg

<svg xmlns="http://www.w3.org/2000/svg" viewBox="0 0 22 22">
  <defs id="defs3051">
    <style type="text/css" id="current-color-scheme">
      .ColorScheme-Text {
        color:#4d4d4d;
      }
      </style>
  </defs>
 <path 
     style="fill:currentColor;fill-opacity:1;stroke:none" 
	d="m3 5v2h16v-2h-16m0 5v2h16v-2h-16m0 5v2h16v-2h-16"
	 class="ColorScheme-Text"
     />
</svg>

<?xml version="1.0"?>
<!-- Created with Inkscape (http://www.inkscape.org/) -->
<svg xmlns:dc="http://purl.org/dc/elements/1.1/" xmlns:cc="http://creativecommons.org/ns#" xmlns:rdf="http://www.w3.org/1999/02/22-rdf-syntax-ns#" xmlns:svg="http://www.w3.org/2000/svg" xmlns="http://www.w3.org/2000/svg" xmlns:sodipodi="http://sodipodi.sourceforge.net/DTD/sodipodi-0.dtd" xmlns:inkscape="http://www.inkscape.org/namespaces/inkscape" width="22" height="22" id="svg3109" version="1.1" inkscape:version="0.91+devel r" sodipodi:docname="application-menu.svg" viewBox="0 0 22 22">
  <defs id="defs3111">
    <style type="text/css" id="current-color-scheme">
      .ColorScheme-Text {
        color:#4d4d4d;
      }
      .ColorScheme-Background {
        color:#eff0f1;
      }
      .ColorScheme-Highlight {
        color:#3daee9;
      }
      .ColorScheme-ViewText {
        color:#31363b;
      }
      .ColorScheme-ViewBackground {
        color:#fcfcfc;
      }
      .ColorScheme-ViewHover {
        color:#93cee9;
      }
      .ColorScheme-ViewFocus{
        color:#3daee9;
      }
      .ColorScheme-ButtonText {
        color:#31363b;
      }
      .ColorScheme-ButtonBackground {
        color:#eff0f1;
      }
      .ColorScheme-ButtonHover {
        color:#93cee9;
      }
      .ColorScheme-ButtonFocus{
        color:#3daee9;
      }
      </style>
  </defs>
  <sodipodi:namedview id="base" pagecolor="#ffffff" bordercolor="#666666" borderopacity="1.0" inkscape:pageopacity="0.0" inkscape:pageshadow="2" inkscape:zoom="32.137494" inkscape:cx="6.0852609" inkscape:cy="9.630023" inkscape:document-units="px" inkscape:current-layer="layer1" showgrid="true" fit-margin-top="0" fit-margin-left="0" fit-margin-right="0" fit-margin-bottom="0" inkscape:window-width="2560" inkscape:window-height="964" inkscape:window-x="-4" inkscape:window-y="34" inkscape:window-maximized="1" inkscape:showpageshadow="false">
    <inkscape:grid type="xygrid" id="grid4108" originx="-1.0000233px" originy="-1.0000029px"/>
    <sodipodi:guide position="2,20" orientation="18,0" id="guide4114"/>
    <sodipodi:guide position="2,2" orientation="0,18" id="guide4116"/>
    <sodipodi:guide position="20,2" orientation="-18,0" id="guide4118"/>
    <sodipodi:guide position="20,20" orientation="0,-18" id="guide4120"/>
    <sodipodi:guide position="3,19" orientation="16,0" id="guide4122"/>
    <sodipodi:guide position="3,3" orientation="0,16" id="guide4124"/>
    <sodipodi:guide position="18.999977,9.9999971" orientation="-16,0" id="guide4126"/>
    <sodipodi:guide position="19,19" orientation="0,-16" id="guide4128"/>
  </sodipodi:namedview>
  <metadata id="metadata3114">
    <rdf:RDF>
      <cc:Work rdf:about="">
        <dc:format>image/svg+xml</dc:format>
        <dc:type rdf:resource="http://purl.org/dc/dcmitype/StillImage"/>
        <dc:title/>
      </cc:Work>
    </rdf:RDF>
  </metadata>
  <g inkscape:label="Capa 1" inkscape:groupmode="layer" id="layer1" transform="translate(-534.14288,-579.07648)">
    <path style="opacity:1;fill:currentColor;fill-opacity:1;stroke:none" d="M 3 5 L 3 7 L 19 7 L 19 5 L 3 5 z M 3 10 L 3 12 L 19 12 L 19 10 L 3 10 z M 3 15 L 3 17 L 19 17 L 19 15 L 3 15 z " transform="translate(534.14288,579.07648)" id="rect4143" class="ColorScheme-Text"/>
  </g>
</svg>
